X: 3
T: The Reel With The Birl
R: reel
M: 4/4
L: 1/8
K: Edor
~E2BE dEBE|~E2BE AGFD|~E2BE dEBc|1 ~d3B AGFD:|2 ~d3B A2FA||B3d e3g|fddc d2ef|g2gf gfeg|fa~a2 afed|fb~b2 bafe|fa~a2 afed|B2BA BAFA|~d3B AGFD||


Tune 189	Setting 189

